COLOR/action 16/16/paint-gradient-conical.svg

<svg height="16" width="16" xmlns="http://www.w3.org/2000/svg"><path d="m16 8.0000152a7.9999999 7.9999999 0 0 1 -8.0000001 7.9999978 7.9999999 7.9999999 0 0 1 -7.9999999-7.9999978 7.9999999 7.9999999 0 0 1 7.9999999-8.00000009 7.9999999 7.9999999 0 0 1 8.0000001 8.00000009z" fill="#1a7fd4"/><path d="m1118.3462 353.92533a8.3369244 7.778455 0 0 0 -.081.0342 8.3369244 7.778455 0 0 0 -.7226.3855 8.3369244 7.778455 0 0 0 -.6778.45197 8.3369244 7.778455 0 0 0 -.6269.51464 8.3369244 7.778455 0 0 0 -.5679.56782 8.3369244 7.778455 0 0 0 -.5047.61908 8.3369244 7.778455 0 0 0 -.4356.66277 8.3369244 7.778455 0 0 0 -.3623.70074 8.3369244 7.778455 0 0 0 -.2849.73113 8.3369244 7.778455 0 0 0 -.2056.75202 8.3369244 7.778455 0 0 0 -.1262.76911 8.3369244 7.778455 0 0 0 -.012.21839h8.3084zm3.7003 6.40735h8.3166a8.3369244 7.778455 0 0 0 -.1018-.76342 8.3369244 7.778455 0 0 0 -.1811-.75961 8.3369244 7.778455 0 0 0 -.2626-.73683 8.3369244 7.778455 0 0 0 -.342-.71024 8.3369244 7.778455 0 0 0 -.4131-.67415 8.3369244 7.778455 0 0 0 -.4845-.63238 8.3369244 7.778455 0 0 0 -.5515-.58491 8.3369244 7.778455 0 0 0 -.6086-.52983 8.3369244 7.778455 0 0 0 -.6636-.47096 8.3369244 7.778455 0 0 0 -.7103-.40639 8.3369244 7.778455 0 0 0 -.3012-.13484zm0 0-4.3048 7.20874a8.3369244 7.778455 0 0 0 .3073.17661 8.3369244 7.778455 0 0 0 .7511.33803 8.3369244 7.778455 0 0 0 .7836.26587 8.3369244 7.778455 0 0 0 .806.1918 8.3369244 7.778455 0 0 0 .8243.11774 8.3369244 7.778455 0 0 0 .8325.038 8.3369244 7.778455 0 0 0 .5903-.019 8.3369244 7.778455 0 0 0 .8263-.0949 8.3369244 7.778455 0 0 0 .8142-.16902 8.3369244 7.778455 0 0 0 .7897-.24497 8.3369244 7.778455 0 0 0 .7612-.31904 8.3369244 7.778455 0 0 0 .3705-.1975z" fill="#fff" stroke-width=".877571" transform="matrix(.84210526 0 0 .90256584 -936.88496 -318.09468)"/><path d="m8 0a7.9999999 7.9999999 0 0 0 -8 8 7.9999999 7.9999999 0 0 0 .00976563.2929688 7.9999999 7.9999999 0 0 1 7.99023437-7.7929688 7.9999999 7.9999999 0 0 1 7.990234 7.7070312 7.9999999 7.9999999 0 0 0 .009766-.2070312 7.9999999 7.9999999 0 0 0 -8-8z" fill="#fff" opacity=".3"/><path d="m8.0000195 16a7.9999999 7.9999999 0 0 0 7.9999995-8.0000004 7.9999999 7.9999999 0 0 0 -.0098-.292968 7.9999999 7.9999999 0 0 1 -7.9902345 7.7929684 7.9999999 7.9999999 0 0 1 -7.990234-7.7070314 7.9999999 7.9999999 0 0 0 -.00977.207031 7.9999999 7.9999999 0 0 0 8 8.0000004z" opacity=".2"/></svg>

<?xml version="1.0" encoding="UTF-8" standalone="no"?>
<svg
   xmlns:dc="http://purl.org/dc/elements/1.1/"
   xmlns:cc="http://creativecommons.org/ns#"
   xmlns:rdf="http://www.w3.org/1999/02/22-rdf-syntax-ns#"
   xmlns:svg="http://www.w3.org/2000/svg"
   xmlns="http://www.w3.org/2000/svg"
   xmlns:sodipodi="http://sodipodi.sourceforge.net/DTD/sodipodi-0.dtd"
   xmlns:inkscape="http://www.inkscape.org/namespaces/inkscape"
   height="16"
   width="16"
   version="1.1"
   id="svg14"
   sodipodi:docname="paint-gradient-conical.svg"
   inkscape:version="0.92.4 (5da689c313, 2019-01-14)">
  <metadata
     id="metadata20">
    <rdf:RDF>
      <cc:Work
         rdf:about="">
        <dc:format>image/svg+xml</dc:format>
        <dc:type
           rdf:resource="http://purl.org/dc/dcmitype/StillImage" />
      </cc:Work>
    </rdf:RDF>
  </metadata>
  <defs
     id="defs18" />
  <sodipodi:namedview
     pagecolor="#ffffff"
     bordercolor="#666666"
     borderopacity="1"
     objecttolerance="10"
     gridtolerance="10"
     guidetolerance="10"
     inkscape:pageopacity="0"
     inkscape:pageshadow="2"
     inkscape:window-width="1920"
     inkscape:window-height="1016"
     id="namedview16"
     showgrid="false"
     showguides="false"
     inkscape:zoom="51.137129"
     inkscape:cx="8.0000024"
     inkscape:cy="7.7965655"
     inkscape:window-x="0"
     inkscape:window-y="27"
     inkscape:window-maximized="1"
     inkscape:current-layer="svg14" />
  <path
     d="M 16,8.0000152 A 7.9999999,7.9999999 0 0 1 7.9999999,16.000013 7.9999999,7.9999999 0 0 1 0,8.0000152 7.9999999,7.9999999 0 0 1 7.9999999,1.5110562e-5 7.9999999,7.9999999 0 0 1 16,8.0000152 Z"
     id="path2"
     style="fill:#1a7fd4;fill-opacity:1"
     inkscape:connector-curvature="0" />
  <g
     transform="matrix(0.84210526,0,0,0.90256584,-936.88496,-318.09468)"
     id="g12"
     style="fill:#ffffff;fill-opacity:1">
    <path
       style="fill:#ffffff;fill-opacity:1;stroke-width:0.87757099"
       d="m 1118.3462,353.92533 a 8.3369244,7.778455 0 0 0 -0.081,0.0342 8.3369244,7.778455 0 0 0 -0.7226,0.3855 8.3369244,7.778455 0 0 0 -0.6778,0.45197 8.3369244,7.778455 0 0 0 -0.6269,0.51464 8.3369244,7.778455 0 0 0 -0.5679,0.56782 8.3369244,7.778455 0 0 0 -0.5047,0.61908 8.3369244,7.778455 0 0 0 -0.4356,0.66277 8.3369244,7.778455 0 0 0 -0.3623,0.70074 8.3369244,7.778455 0 0 0 -0.2849,0.73113 8.3369244,7.778455 0 0 0 -0.2056,0.75202 8.3369244,7.778455 0 0 0 -0.1262,0.76911 8.3369244,7.778455 0 0 0 -0.012,0.21839 h 8.3084 z m 3.7003,6.40735 h 8.3166 a 8.3369244,7.778455 0 0 0 -0.1018,-0.76342 8.3369244,7.778455 0 0 0 -0.1811,-0.75961 8.3369244,7.778455 0 0 0 -0.2626,-0.73683 8.3369244,7.778455 0 0 0 -0.342,-0.71024 8.3369244,7.778455 0 0 0 -0.4131,-0.67415 8.3369244,7.778455 0 0 0 -0.4845,-0.63238 8.3369244,7.778455 0 0 0 -0.5515,-0.58491 8.3369244,7.778455 0 0 0 -0.6086,-0.52983 8.3369244,7.778455 0 0 0 -0.6636,-0.47096 8.3369244,7.778455 0 0 0 -0.7103,-0.40639 8.3369244,7.778455 0 0 0 -0.3012,-0.13484 z m 0,0 -4.3048,7.20874 a 8.3369244,7.778455 0 0 0 0.3073,0.17661 8.3369244,7.778455 0 0 0 0.7511,0.33803 8.3369244,7.778455 0 0 0 0.7836,0.26587 8.3369244,7.778455 0 0 0 0.806,0.1918 8.3369244,7.778455 0 0 0 0.8243,0.11774 8.3369244,7.778455 0 0 0 0.8325,0.038 8.3369244,7.778455 0 0 0 0.5903,-0.019 8.3369244,7.778455 0 0 0 0.8263,-0.0949 8.3369244,7.778455 0 0 0 0.8142,-0.16902 8.3369244,7.778455 0 0 0 0.7897,-0.24497 8.3369244,7.778455 0 0 0 0.7612,-0.31904 8.3369244,7.778455 0 0 0 0.3705,-0.1975 z"
       id="path838"
       inkscape:connector-curvature="0" />
  </g>
  <path
     style="fill:#ffffff;fill-opacity:1;opacity:0.3"
     d="M 8 0 A 7.9999999 7.9999999 0 0 0 0 8 A 7.9999999 7.9999999 0 0 0 0.009765625 8.2929688 A 7.9999999 7.9999999 0 0 1 8 0.5 A 7.9999999 7.9999999 0 0 1 15.990234 8.2070312 A 7.9999999 7.9999999 0 0 0 16 8 A 7.9999999 7.9999999 0 0 0 8 0 z "
     id="path856" />
  <path
     id="path861"
     d="M 8.0000195,16 A 7.9999999,7.9999999 0 0 0 16.000019,7.9999996 7.9999999,7.9999999 0 0 0 15.990219,7.7070316 7.9999999,7.9999999 0 0 1 7.9999845,15.5 7.9999999,7.9999999 0 0 1 0.0097505,7.7929686 a 7.9999999,7.9999999 0 0 0 -0.00977,0.207031 7.9999999,7.9999999 0 0 0 8,8.0000004 z"
     style="opacity:0.2;fill:#000000;fill-opacity:1"
     inkscape:connector-curvature="0" />
</svg>
